X:112
T:Devonshire Allemand. THO5.112, The
R:Allemand
M:2/4
L:1/8
B:Thompson's Complete Collection of 200 Favourite Dances Vol.5
F:https://www.libraryofdance.org/manuals/1780c-Thompson-Compleat-5.pdf
Z:vmp. Peter Dunk 2024
Q:1/4=120
K:C
c2 BG|c2 de|fe/f/ dg|ef/e/ dB|\\
c2 BG|c2 de|fe/f/ dg|c2 C2:|
|:gg ee|cc Af/g/|aa ff|dd BG|\\
c2 BG|c2 de|fe/f/ dg|c2 C2:|
W:
W:The 1st Couple Allemand ./.
W:The 2nd Couple do the same ./:
W:Promenade 3 Couples round :/.
W:The 1st and 2nd Couples Poussett :/:

